brandFactory_export/1.Light/Accesibilidad_1Light.svg

<?xml version="1.0" encoding="UTF-8"?>
<svg width="24px" height="24px" viewBox="0 0 24 24" version="1.1" xmlns="http://www.w3.org/2000/svg" xmlns:xlink="http://www.w3.org/1999/xlink">
    <title>1.Light/Accesibilidad_1Light</title>
    <g id="Symbols" stroke="none" stroke-width="1" fill="none" fill-rule="evenodd">
        <g id="1.Light/Accesibilidad_1Light" fill="#5CB615" fill-rule="nonzero">
            <path d="M23.4420168,22.9714286 L17.0554622,16.5848739 C19.2067227,15.6302521 21.3411765,14.097479 23.4420168,11.9966387 C23.5058824,11.9327731 23.5394958,11.8453782 23.5394958,11.7579832 C23.5394958,11.6705882 23.502521,11.5831933 23.4420168,11.5193277 C19.6504202,7.72773109 15.7344538,5.80504202 11.8117647,5.80504202 C10.2621849,5.80504202 8.71260504,6.10420168 7.1697479,6.70252101 L0.58487395,0.114285714 C0.453781513,-0.0168067227 0.242016807,-0.0168067227 0.11092437,0.114285714 C-0.0201680672,0.245378151 -0.0201680672,0.457142857 0.11092437,0.588235294 L6.49747899,6.97478992 C4.34621849,7.92941176 2.21176471,9.46218487 0.11092437,11.5630252 C0.0470588235,11.6268908 0.0134453782,11.7142857 0.0134453782,11.8016807 C0.0134453782,11.8890756 0.0504201681,11.9764706 0.11092437,12.0403361 C3.90252101,15.8319328 7.81848739,17.7546218 11.7411765,17.7546218 C13.2907563,17.7546218 14.8403361,17.4554622 16.3831933,16.8571429 L22.9680672,23.4420168 C23.0352941,23.5092437 23.1193277,23.5394958 23.2067227,23.5394958 C23.2941176,23.5394958 23.3781513,23.5058824 23.4453782,23.4420168 C23.5764706,23.3142857 23.5764706,23.102521 23.4420168,22.9714286 Z M11.8117647,6.47058824 C15.4722689,6.47058824 19.1428571,8.2487395 22.7294118,11.7512605 C20.6857143,13.7478992 18.6184874,15.189916 16.5445378,16.0672269 L15.2268908,14.7529412 C15.8218487,14.010084 16.1243697,13.0084034 16.1243697,11.7680672 C16.1243697,10.3226891 15.7176471,9.20336134 14.9142857,8.44033613 C14.1546218,7.71764706 13.0823529,7.3512605 11.7310924,7.3512605 C10.4907563,7.3512605 9.48907563,7.65714286 8.74285714,8.26554622 L7.69411765,7.21680672 C9.06554622,6.72268908 10.4403361,6.47058824 11.8117647,6.47058824 Z M11.7478992,10.7865546 C11.589916,10.7865546 11.4487395,10.8067227 11.3210084,10.8537815 L9.22016807,8.75294118 C9.83865546,8.27563025 10.6789916,8.03361345 11.7277311,8.03361345 C13.4252101,8.03361345 15.4487395,8.68235294 15.4487395,11.7747899 C15.4487395,12.8235294 15.2134454,13.6638655 14.7428571,14.2789916 L12.6789916,12.2151261 C12.7193277,12.0941176 12.7428571,11.9529412 12.7428571,11.7915966 C12.7462185,11.102521 12.3529412,10.7865546 11.7478992,10.7865546 L11.7478992,10.7865546 Z M11.7411765,17.0857143 C8.08067227,17.0857143 4.41008403,15.307563 0.823529412,11.805042 C2.86722689,9.80840336 4.93445378,8.36638655 7.00840336,7.48907563 L15.8588235,16.3394958 C14.487395,16.8369748 13.112605,17.0857143 11.7411765,17.0857143 L11.7411765,17.0857143 Z" id="Accesibilidad_1Light"></path>
        </g>
    </g>
</svg>

<svg width="24" height="24" viewBox="0 0 24 24" xmlns="http://www.w3.org/2000/svg"><path d="M23.442 22.971l-6.387-6.386c2.152-.955 4.286-2.488 6.387-4.588a.338.338 0 000-.478c-3.792-3.791-7.708-5.714-11.63-5.714-1.55 0-3.1.3-4.642.898L.585.114A.335.335 0 10.11.588l6.386 6.387c-2.15.954-4.285 2.487-6.386 4.588a.338.338 0 000 .477c3.792 3.792 7.707 5.715 11.63 5.715 1.55 0 3.1-.3 4.642-.898l6.585 6.585a.33.33 0 00.239.097.344.344 0 00.238-.097.328.328 0 00-.003-.47zm-11.63-16.5c3.66 0 7.33 1.778 10.917 5.28-2.043 1.997-4.11 3.439-6.184 4.316l-1.318-1.314c.595-.743.897-1.745.897-2.985 0-1.445-.406-2.565-1.21-3.328-.76-.722-1.832-1.089-3.183-1.089-1.24 0-2.242.306-2.988.915l-1.049-1.05c1.372-.493 2.746-.745 4.118-.745zm-.064 4.316c-.158 0-.3.02-.427.067l-2.1-2.101c.618-.477 1.458-.72 2.507-.72 1.697 0 3.72.65 3.72 3.742 0 1.049-.235 1.889-.705 2.504l-2.064-2.064c.04-.12.064-.262.064-.423.003-.69-.39-1.005-.995-1.005zm-.007 6.299c-3.66 0-7.33-1.778-10.917-5.281 2.043-1.997 4.11-3.439 6.184-4.316l8.85 8.85a12.014 12.014 0 01-4.117.747z" fill="#5CB615" fill-rule="nonzero"/></svg>
